X: 15598
T: Gneevgullia
R: reel
M: 4/4
K: Eminor
|:~E3F GFEF|GBAG FDDF|EDEF ~G3B|1 dBAc BEED:|2 dBAc BE~E2||
|:efed (3B^cd ef|geag fddf|1 ~e3d Bdeg|fedf ~e3d:|2 ~g3e ~f3e|dBAc BEED||
|:GBdg eBdB|AD (3FED FA~A2|BE~E2 GFGB|dBAc BEED:|

